X: 1
T: da Slockit Light
C: Tom Anderson
O: Shetland
R: air
Z: 2005 John Chambers <jc:trillian.mit.edu>
M: C
L: 1/16
K: D
"(A7)"FE \
| "D"D3F A2d2 "A7"fedc "D"d2A2 | "G"B2d2 "D"A2d2 "Em"BAGF "A7"EGFE \
| "D"D3F A2d2 "A7"fedc "D"d2A2 | "G"B2G2 "A7"AGFE "D"D4 D2 :|
"(A7)"g2 \
| "D"f2a2 "A"e3c "D"d3e dcBA | "D"f2a2 "E7"e2^g2 "A"a6 g2 \
| "D"f2a2 "A"e3c "D"d3e dcBA | "G"B2G2 "A7"AGFE "D"D4 D2 |]
"(A7)"g2 \
| "D"f2a2 "A"e3c "Bm"d3e dcBA | "G"B2d2 "D"A2d2 "Em"BAGF "A7"EGFE \
| "D"D3F A2d2 "F#"fedc "Bm"d2A2 | "Em"B2G2 "A7"AGFE "D"D4 D2 |]
